**kern	**silbe	**harmony	**phrase	**leadinstrument	**rhyme	**timestamp	**harte
*ICvox	*	*M4/4	*	*	*	*	*M4/4
*VRlead	*	*	*	*	*	*	*
*Hstimme	*	*	*	*	*	*	*
*G:	*	*G:	*	*	*	*	*G:
*M4/4	*	*	*	*	*	*	*
*clefF4	*	*	*	*	*	*	*
r;	.	1r;	.	r	.	0	N.C.
=1	=1	=1	=1	=1	=1	=1	=1
*>Letter>A	*>Letter>A	*>Letter>A	*>Letter>A	*>Letter>A	*>Letter>A	*>Letter>A	*>Letter>A
*>Label>Intro	*>Label>Intro	*>Label>Intro	*>Label>Intro	*>Label>Intro	*>Label>Intro	*>Label>Intro	*>Label>Intro
1r	.	1GM	newline	guitar	.	1.873	G:maj
=2	=2	=2	=2	=2	=2	=2	=2
1r	.	1Amm	.	guitar	.	5.566	A:min7(11)
=3	=3	=3	=3	=3	=3	=3	=3
1r	.	1GM	.	guitar	.	9.259	G:maj
=4	=4	=4	=4	=4	=4	=4	=4
1r	.	1Amm	.	guitar	.	12.952	A:min7(11)
=5	=5	=5	=5	=5	=5	=5	=5
1r	.	1GM	.	guitar	.	16.645	G:maj
=6	=6	=6	=6	=6	=6	=6	=6
*>Letter>B	*>Letter>B	*>Letter>B	*>Letter>B	*>Letter>B	*>Letter>B	*>Letter>B	*>Letter>B
*>Label>Verse	*>Label>Verse	*>Label>Verse	*>Label>Verse	*>Label>Verse	*>Label>Verse	*>Label>Verse	*>Label>Verse
4r	.	1Bm	newline	voice	.	20.338	B:min
[2d	Child-	.	.	.	A	.	.
16d]	_	.	.	.	.	.	.
8.e	-hood	.	.	.	.	.	.
=7	=7	=7	=7	=7	=7	=7	=7
16B	liv-	1GM	.	voice	.	24.008	G:maj
4..B	-ing	.	.	.	.	.	.
2r	.	.	.	.	.	.	.
=8	=8	=8	=8	=8	=8	=8	=8
4r	.	1Bm	.	voice	.	27.677	B:min
8r	.	.	.	.	.	.	.
16B	It's	.	.	.	.	.	.
[16f#	ea-	.	.	.	.	.	.
8f#]	_	.	.	.	.	.	.
8.d	_	.	.	.	.	.	.
16B	-sy	.	.	.	.	.	.
16A	to	.	.	.	.	.	.
[16B	do	.	.	.	B	.	.
=9	=9	=9	=9	=9	=9	=9	=9
2.B]	_	1GM	.	voice	.	31.347	G:maj
4r	.	.	.	.	.	.	.
=10	=10	=10	=10	=10	=10	=10	=10
4r	.	1Am	newline	voice	.	35.016	A:min
8r	.	.	.	.	.	.	.
16G	The	.	.	.	.	.	.
4.A	things	.	.	.	.	.	.
[8.B	you	.	.	.	.	.	.
=11	=11	=11	=11	=11	=11	=11	=11
8B]	_	2.CM	.	voice	.	38.646	C:maj
16A	wan-	.	.	.	.	.	.
[16E	_	.	.	.	.	.	.
8E]	_	.	.	.	.	.	.
[8G	-ted	.	.	.	.	.	.
4G]	_	.	.	.	.	.	.
4r	.	4DM	.	voice	.	41.368	D:maj
=12	=12	=12	=12	=12	=12	=12	=12
4r	.	1GM	.	voice	.	42.276	G:maj
8r	.	.	.	.	.	.	.
16G	I	.	.	.	.	.	.
[16B	bought	.	.	.	.	.	.
8B]	_	.	.	.	.	.	.
16A	them	.	.	.	.	.	.
[16G	_	.	.	.	.	.	.
8G]	_	.	.	.	.	.	.
8G	for	.	.	.	.	.	.
=13	=13	=13	=13	=13	=13	=13	=13
16F#	you	2.DM	.	voice	B	45.905	D:maj
[8.A	_	.	.	.	.	.	.
2A]	_	.	.	.	.	.	.
4r	.	4CM	.	voice	.	48.628	C:maj
=14	=14	=14	=14	=14	=14	=14	=14
4r	.	1Bm	newline	voice	.	49.535	B:min
8r	.	.	.	.	.	.	.
4..d	Grace-	.	.	.	.	.	.
8.e	-less	.	.	.	.	.	.
=15	=15	=15	=15	=15	=15	=15	=15
8.B	la-	1GM	.	voice	.	53.063	G:maj
[16B	-dy	.	.	.	.	.	.
2B]	_	.	.	.	.	.	.
4r	.	.	.	.	.	.	.
=16	=16	=16	=16	=16	=16	=16	=16
4r	.	1Bm	.	voice	.	56.592	B:min
8r	.	.	.	.	.	.	.
16B	You	.	.	.	.	.	.
16f#	know	.	.	.	.	.	.
4d	_	.	.	.	.	.	.
16d	who	.	.	.	.	.	.
8.A	I	.	.	.	.	.	.
=17	=17	=17	=17	=17	=17	=17	=17
2B	am	1GM	.	voice	C	60.12	G:maj
2r	.	.	.	.	.	.	.
=18	=18	=18	=18	=18	=18	=18	=18
4r	.	1Am	newline	voice	.	63.648	A:min
8r	.	.	.	.	.	.	.
16G	You	.	.	.	.	.	.
[16A	know	.	.	.	.	.	.
8A]	_	.	.	.	.	.	.
4A	I	.	.	.	.	.	.
[8B	can't	.	.	.	.	.	.
=19	=19	=19	=19	=19	=19	=19	=19
16B]	_	2.CM	.	voice	.	67.101	C:maj
16A	let	.	.	.	.	.	.
8E	_	.	.	.	.	.	.
2G	you	.	.	.	.	.	.
4r	.	4DM	.	voice	.	69.691	D:maj
=20	=20	=20	=20	=20	=20	=20	=20
2r	.	1GM	.	voice	.	70.554	G:maj
4B	slide	.	.	.	.	.	.
16A	through	.	.	.	.	.	.
8.G	my	.	.	.	.	.	.
=21	=21	=21	=21	=21	=21	=21	=21
16F#	hands	1DM	.	voice	C	74.007	D:maj
[8.A	_	.	.	.	.	.	.
2A]	_	.	.	.	.	.	.
4r	.	.	.	.	.	.	.
=22	=22	=22	=22	=22	=22	=22	=22
*>Letter>C	*>Letter>C	*>Letter>C	*>Letter>C	*>Letter>C	*>Letter>C	*>Letter>C	*>Letter>C
*>Label>Chorus	*>Label>Chorus	*>Label>Chorus	*>Label>Chorus	*>Label>Chorus	*>Label>Chorus	*>Label>Chorus	*>Label>Chorus
2r	.	1Am	newline	voice	.	77.46	A:min
[2B	Wild	.	.	.	A	.	.
=23	=23	=23	=23	=23	=23	=23	=23
16B]	_	2.CM	.	voice	.	80.932	C:maj
16A	hors-	.	.	.	.	.	.
8E	_	.	.	.	.	.	.
2G	-es	.	.	.	.	.	.
4r	.	4DM	.	voice	.	83.536	D:maj
=24	=24	=24	=24	=24	=24	=24	=24
4r	.	2GM	.	voice	.	84.404	G:maj
8B	coul-	.	.	.	.	.	.
8B	-d'nt	.	.	.	.	.	.
8A	drive	2FM	.	voice	.	86.14	F:maj
8.B	me	.	.	.	.	.	.
8.A	a-	.	.	.	.	.	.
=25	=25	=25	=25	=25	=25	=25	=25
16E	-way	2.CM	.	voice	.	87.876	C:maj
4..G	_	.	.	.	.	.	.
2r	.	.	.	.	.	.	.
.	.	4Bm	.	voice	.	90.48	B:min
=26	=26	=26	=26	=26	=26	=26	=26
2r	.	1Am	newline	voice	.	91.348	A:min
[4B	Wild	.	.	.	A	.	.
16B]	_	.	.	.	.	.	.
[8.B	wild	.	.	.	A	.	.
=27	=27	=27	=27	=27	=27	=27	=27
8B]	_	2.CM	.	voice	.	94.751	C:maj
16A	hors-	.	.	.	.	.	.
8E	_	.	.	.	.	.	.
[8.G	-es	.	.	.	.	.	.
8.G]	_	.	.	.	.	.	.
16r	.	.	.	.	.	.	.
4r	.	4DM	.	voice	.	97.304	D:maj
=28	=28	=28	=28	=28	=28	=28	=28
4r	.	2GM	.	voice	.	98.155	G:maj
8B	coul-	.	.	.	.	.	.
8B	-'dnt	.	.	.	.	.	.
8A	drag	2FM	.	voice	.	99.856	F:maj
8.B	me	.	.	.	.	.	.
8.A	a-	.	.	.	.	.	.
=29	=29	=29	=29	=29	=29	=29	=29
8E	-way	1CM	.	voice	.	101.558	C:maj
4.G	_	.	.	.	.	.	.
2r	.	.	.	.	.	.	.
=30	=30	=30	=30	=30	=30	=30	=30
*>Letter>B	*>Letter>B	*>Letter>B	*>Letter>B	*>Letter>B	*>Letter>B	*>Letter>B	*>Letter>B
*>Label>Verse	*>Label>Verse	*>Label>Verse	*>Label>Verse	*>Label>Verse	*>Label>Verse	*>Label>Verse	*>Label>Verse
2r	.	1Bm	newline	voice	.	104.961	B:min
8d	I	.	.	.	A	.	.
8.d	watched	.	.	.	.	.	.
8.e	you	.	.	.	.	.	.
=31	=31	=31	=31	=31	=31	=31	=31
16r	.	1GM	.	voice	.	108.386	G:maj
8B	su-	.	.	.	.	.	.
[16B	-ffer	.	.	.	.	.	.
4.B]	_	.	.	.	.	.	.
8r	.	.	.	.	.	.	.
4r	.	.	.	.	.	.	.
=32	=32	=32	=32	=32	=32	=32	=32
4r	.	1Bm	.	voice	.	111.812	B:min
8r	.	.	.	.	.	.	.
16B	a	.	.	.	.	.	.
16f#	dull	.	.	.	.	.	.
8d	_	.	.	.	.	.	.
8.d	ach-	.	.	.	.	.	.
[8.B	-ing	.	.	.	.	.	.
=33	=33	=33	=33	=33	=33	=33	=33
8B]	_	1GM	.	voice	.	115.238	G:maj
16A	pain	.	.	.	D	.	.
[16B	_	.	.	.	.	.	.
2B]	_	.	.	.	.	.	.
4r	.	.	.	.	.	.	.
=34	=34	=34	=34	=34	=34	=34	=34
2r	.	1Am	newline	voice	.	118.664	A:min
8A	Now	.	.	.	.	.	.
8.A	you	.	.	.	.	.	.
[8.B	de-	.	.	.	.	.	.
=35	=35	=35	=35	=35	=35	=35	=35
16B]	_	2.CM	.	voice	.	122.022	C:maj
16A	-cid-	.	.	.	.	.	.
8.E	_	.	.	.	.	.	.
2G	-ed	.	.	.	.	.	.
.	.	4DM	.	voice	.	124.541	D:maj
8.r	.	.	.	.	.	.	.
=36	=36	=36	=36	=36	=36	=36	=36
4r	.	1GM	.	voice	.	125.381	G:maj
8r	.	.	.	.	.	.	.
16G	to	.	.	.	.	.	.
[16B	show	.	.	.	.	.	.
8B]	_	.	.	.	.	.	.
4A	me	.	.	.	.	.	.
8G	the	.	.	.	.	.	.
=37	=37	=37	=37	=37	=37	=37	=37
16F#	same	2.DM	.	voice	D	128.74	D:maj
[8.A	_	.	.	.	.	.	.
2A]	_	.	.	.	.	.	.
4r	.	4CM	.	voice	.	131.259	C:maj
=38	=38	=38	=38	=38	=38	=38	=38
4r	.	1Bm	newline	voice	.	132.098	B:min
8r	.	.	.	.	.	.	.
4d	No	.	.	.	.	.	.
8.d	swee-	.	.	.	.	.	.
[8.e	-ping	.	.	.	.	.	.
=39	=39	=39	=39	=39	=39	=39	=39
8e]	_	1GM	.	voice	.	135.477	G:maj
8.B	ex-	.	.	.	.	.	.
4..B	-its	.	.	.	.	.	.
4r	.	.	.	.	.	.	.
=40	=40	=40	=40	=40	=40	=40	=40
4.r	.	1Bm	.	voice	.	138.855	B:min
8f#	or	.	.	.	.	.	.
16d	_	.	.	.	.	.	.
4d	off	.	.	.	.	.	.
[8.B	stage	.	.	.	D	.	.
=41	=41	=41	=41	=41	=41	=41	=41
8B]	_	1GM	.	voice	.	142.234	G:maj
[8B	lines	.	.	.	A	.	.
2B]	_	.	.	.	.	.	.
4r	.	.	.	.	.	.	.
=42	=42	=42	=42	=42	=42	=42	=42
4r	.	1Am	newline	voice	.	145.612	A:min
8r	.	.	.	.	.	.	.
16G	could	.	.	.	.	.	.
[16A	make	.	.	.	.	.	.
8A]	_	.	.	.	.	.	.
8.A	me	.	.	.	.	.	.
8.B	feel	.	.	.	.	.	.
=43	=43	=43	=43	=43	=43	=43	=43
8B	_	2.CM	.	voice	.	148.967	C:maj
16A	bi-	.	.	.	.	.	.
[16E	_	.	.	.	.	.	.
16E]	_	.	.	.	.	.	.
2G	-tter	.	.	.	.	.	.
.	.	4DM	.	voice	.	151.483	D:maj
16r	.	.	.	.	.	.	.
8r	.	.	.	.	.	.	.
=44	=44	=44	=44	=44	=44	=44	=44
4r	.	1GM	.	voice	.	152.322	G:maj
8r	.	.	.	.	.	.	.
16D	or	.	.	.	.	.	.
8.B	treat	.	.	.	.	.	.
8.A	you	.	.	.	.	.	.
8.G	un-	.	.	.	.	.	.
=45	=45	=45	=45	=45	=45	=45	=45
16F#	-kind	1DM	.	voice	A	155.677	D:maj
[8.A	_	.	.	.	.	.	.
2A]	_	.	.	.	.	.	.
4r	.	.	.	.	.	.	.
=46	=46	=46	=46	=46	=46	=46	=46
*>Letter>C	*>Letter>C	*>Letter>C	*>Letter>C	*>Letter>C	*>Letter>C	*>Letter>C	*>Letter>C
*>Label>Chorus	*>Label>Chorus	*>Label>Chorus	*>Label>Chorus	*>Label>Chorus	*>Label>Chorus	*>Label>Chorus	*>Label>Chorus
2r	.	1Am	newline	voice	.	159.032	A:min
[2B	Wild	.	.	.	A	.	.
=47	=47	=47	=47	=47	=47	=47	=47
16B]	_	2.CM	.	voice	.	162.398	C:maj
16A	hors-	.	.	.	.	.	.
8E	_	.	.	.	.	.	.
4.G	-es	.	.	.	.	.	.
8r	.	.	.	.	.	.	.
4r	.	4DM	.	voice	.	164.922	D:maj
=48	=48	=48	=48	=48	=48	=48	=48
4r	.	2GM	.	voice	.	165.763	G:maj
8B	coul-	.	.	.	.	.	.
8B	-d'nt	.	.	.	.	.	.
8A	drive	2FM	.	voice	.	167.446	F:maj
8.B	me	.	.	.	.	.	.
8.A	a-	.	.	.	.	.	.
=49	=49	=49	=49	=49	=49	=49	=49
8E	-way	2.CM	.	voice	D	169.129	C:maj
4.G	_	.	.	.	.	.	.
2r	.	.	.	.	.	.	.
.	.	4Bm	.	voice	.	171.653	B:min
=50	=50	=50	=50	=50	=50	=50	=50
2r	.	1Am	newline	voice	.	172.495	A:min
[4B	Wild	.	.	.	A	.	.
16B]	_	.	.	.	.	.	.
[8.B	wild	.	.	.	A	.	.
=51	=51	=51	=51	=51	=51	=51	=51
8B]	_	2.CM	.	voice	.	175.762	C:maj
16A	hors-	.	.	.	.	.	.
8E	_	.	.	.	.	.	.
[8.G	-es	.	.	.	.	.	.
8G]	_	.	.	.	.	.	.
8r	.	.	.	.	.	.	.
4r	.	4DM	.	voice	.	178.212	D:maj
=52	=52	=52	=52	=52	=52	=52	=52
4r	.	2GM	.	voice	.	179.029	G:maj
8B	coul-	.	.	.	.	.	.
8B	-'dnt	.	.	.	.	.	.
8A	drag	2FM	.	voice	.	180.662	F:maj
8.B	me	.	.	.	.	.	.
8.A	a-	.	.	.	.	.	.
=53	=53	=53	=53	=53	=53	=53	=53
8E	-way	1CM	.	voice	D	182.295	C:maj
4.G	_	.	.	.	.	.	.
2r	.	.	.	.	.	.	.
=54	=54	=54	=54	=54	=54	=54	=54
*>Letter>D	*>Letter>D	*>Letter>D	*>Letter>D	*>Letter>D	*>Letter>D	*>Letter>D	*>Letter>D
*>Label>Solo	*>Label>Solo	*>Label>Solo	*>Label>Solo	*>Label>Solo	*>Label>Solo	*>Label>Solo	*>Label>Solo
1r	.	1FM	newline	guitar	.	185.562	F:maj
=55	=55	=55	=55	=55	=55	=55	=55
1r	.	1CM	.	guitar	.	188.742	C:maj
=56	=56	=56	=56	=56	=56	=56	=56
1r	.	1FM	.	guitar	.	191.922	F:maj
=57	=57	=57	=57	=57	=57	=57	=57
1r	.	2.CM	.	guitar	.	195.103	C:maj
.	.	4DM	.	guitar	.	197.488	D:maj
=58	=58	=58	=58	=58	=58	=58	=58
1r	.	2.GM	newline	guitar	.	198.283	G:maj
.	.	4Am	.	guitar	.	200.783	A:min/b7
=59	=59	=59	=59	=59	=59	=59	=59
1r	.	1GM	.	guitar	.	201.616	G:maj
=60	=60	=60	=60	=60	=60	=60	=60
*>Letter>B	*>Letter>B	*>Letter>B	*>Letter>B	*>Letter>B	*>Letter>B	*>Letter>B	*>Letter>B
*>Label>Verse	*>Label>Verse	*>Label>Verse	*>Label>Verse	*>Label>Verse	*>Label>Verse	*>Label>Verse	*>Label>Verse
2r	.	1Bm	newline	voice	.	204.949	B:min
8d	I	.	.	.	A	.	.
8d	know	.	.	.	.	.	.
[4e	I	.	.	.	.	.	.
=61	=61	=61	=61	=61	=61	=61	=61
16e]	_	1GM	.	voice	.	208.291	G:maj
[8.B	dreamed	.	.	.	.	.	.
8B]	_	.	.	.	.	.	.
4.B	you	.	.	.	.	.	.
4r	.	.	.	.	.	.	.
=62	=62	=62	=62	=62	=62	=62	=62
4.r	.	1Bm	.	voice	.	211.634	B:min
16B	a	.	.	.	.	.	.
16g	sin	.	.	.	.	.	.
16f#	_	.	.	.	.	.	.
4d	and	.	.	.	.	.	.
8A	a	.	.	.	.	.	.
[16B	lie	.	.	.	A	.	.
=63	=63	=63	=63	=63	=63	=63	=63
2B]	_	1GM	.	voice	.	214.976	G:maj
2r	.	.	.	.	.	.	.
=64	=64	=64	=64	=64	=64	=64	=64
4r	.	1Am	newline	voice	.	218.318	A:min
8r	.	.	.	.	.	.	.
4A	I	.	.	.	A	.	.
8.A	have	.	.	.	.	.	.
[8.B	my	.	.	.	.	.	.
=65	=65	=65	=65	=65	=65	=65	=65
16B]	_	2.CM	.	voice	.	221.566	C:maj
16A	free-	.	.	.	.	.	.
8E	_	.	.	.	.	.	.
4.G	-dom	.	.	.	.	.	.
8r	.	.	.	.	.	.	.
4r	.	4DM	.	voice	.	224.002	D:maj
=66	=66	=66	=66	=66	=66	=66	=66
4r	.	1GM	.	voice	.	224.814	G:maj
8r	.	.	.	.	.	.	.
16G	but	.	.	.	.	.	.
16G	I	.	.	.	.	.	.
8B	don't	.	.	.	.	.	.
16A	have	.	.	.	.	.	.
8G	_	.	.	.	.	.	.
8.G	much	.	.	.	.	.	.
=67	=67	=67	=67	=67	=67	=67	=67
16F#	time	2.DM	.	voice	A	228.062	D:maj
[8.A	_	.	.	.	.	.	.
4A]	_	.	.	.	.	.	.
2r	.	.	.	.	.	.	.
.	.	4CM	.	voice	.	230.498	C:maj
=68	=68	=68	=68	=68	=68	=68	=68
4r	.	1Bm	newline	voice	.	231.309	B:min
8r	.	.	.	.	.	.	.
[8d	Faith	.	.	.	.	.	.
8d]	_	.	.	.	.	.	.
8.d	has	.	.	.	.	.	.
8.e	been	.	.	.	.	.	.
=69	=69	=69	=69	=69	=69	=69	=69
8r	.	1GM	.	voice	.	234.556	G:maj
8.B	bro-	.	.	.	.	.	.
[16B	-ken	.	.	.	.	.	.
4B]	_	.	.	.	.	.	.
8r	.	.	.	.	.	.	.
4r	.	.	.	.	.	.	.
=70	=70	=70	=70	=70	=70	=70	=70
4r	.	1Bm	.	voice	.	237.803	B:min
8r	.	.	.	.	.	.	.
4f#	tears	.	.	.	.	.	.
8.d	must	.	.	.	.	.	.
8.A	be	.	.	.	.	.	.
=71	=71	=71	=71	=71	=71	=71	=71
2B	cried	1GM	.	voice	A	241.05	G:maj
2r	.	.	.	.	.	.	.
=72	=72	=72	=72	=72	=72	=72	=72
4r	.	1Am	newline	voice	.	244.297	A:min
8r	.	.	.	.	.	.	.
4A	Let's	.	.	.	.	.	.
8.A	do	.	.	.	.	.	.
[8.B	some	.	.	.	.	.	.
=73	=73	=73	=73	=73	=73	=73	=73
8B]	_	2.CM	.	voice	.	247.502	C:maj
16A	_	.	.	.	.	.	.
[16E	li-	.	.	.	.	.	.
16E]	_	.	.	.	.	.	.
[8.G	-ving	.	.	.	.	.	.
4G]	_	.	.	.	.	.	.
4r	.	4DM	.	voice	.	249.906	D:maj
=74	=74	=74	=74	=74	=74	=74	=74
2r	.	1GM	.	voice	.	250.708	G:maj
8B	af-	.	.	.	.	.	.
16A	-ter	.	.	.	.	.	.
8G	_	.	.	.	.	.	.
[8.G	we	.	.	.	.	.	.
=75	=75	=75	=75	=75	=75	=75	=75
16G]	_	1DM	.	voice	.	253.913	D:maj
16F#	die	.	.	.	A	.	.
[8A	_	.	.	.	.	.	.
2A]	_	.	.	.	.	.	.
4r	.	.	.	.	.	.	.
=76	=76	=76	=76	=76	=76	=76	=76
*>Letter>C	*>Letter>C	*>Letter>C	*>Letter>C	*>Letter>C	*>Letter>C	*>Letter>C	*>Letter>C
*>Label>Chorus	*>Label>Chorus	*>Label>Chorus	*>Label>Chorus	*>Label>Chorus	*>Label>Chorus	*>Label>Chorus	*>Label>Chorus
2r	.	1Am	newline	voice	.	257.118	A:min
[2B	Wild	.	.	.	A	.	.
=77	=77	=77	=77	=77	=77	=77	=77
16B]	_	2.CM	.	voice	.	260.322	C:maj
16A	hors-	.	.	.	.	.	.
8E	_	.	.	.	.	.	.
4.G	-es	.	.	.	.	.	.
8r	.	.	.	.	.	.	.
4r	.	4DM	.	voice	.	262.725	D:maj
=78	=78	=78	=78	=78	=78	=78	=78
4r	.	2GM	.	voice	.	263.526	G:maj
8B	coul-	.	.	.	.	.	.
8B	-d'nt	.	.	.	.	.	.
8A	drive	2FM	.	voice	.	265.128	F:maj
8.B	me	.	.	.	.	.	.
8.A	a-	.	.	.	.	.	.
=79	=79	=79	=79	=79	=79	=79	=79
8E	-way	2.CM	.	voice	D	266.73	C:maj
4.G	_	.	.	.	.	.	.
2r	.	.	.	.	.	.	.
.	.	4Bm	.	voice	.	269.133	B:min
=80	=80	=80	=80	=80	=80	=80	=80
2r	.	1Am	newline	voice	.	269.934	A:min
[4B	Wild	.	.	.	A	.	.
16B]	_	.	.	.	.	.	.
[8.B	wild	.	.	.	A	.	.
=81	=81	=81	=81	=81	=81	=81	=81
8B]	_	2.CM	.	voice	.	273.179	C:maj
16A	hors-	.	.	.	.	.	.
8E	_	.	.	.	.	.	.
[8.G	-es	.	.	.	.	.	.
8G]	_	.	.	.	.	.	.
8r	.	.	.	.	.	.	.
4r	.	4DM	.	voice	.	275.612	D:maj
=82	=82	=82	=82	=82	=82	=82	=82
4r	.	2GM	.	voice	.	276.423	G:maj
8r	.	.	.	.	.	.	.
8G	We'll	.	.	.	.	.	.
8B	ride	2FM	.	voice	A	278.045	F:maj
8.G	them	.	.	.	.	.	.
16A	some-	.	.	.	.	.	.
[8G	_	.	.	.	.	.	.
=83	=83	=83	=83	=83	=83	=83	=83
16G]	_	1CM	.	voice	.	279.667	C:maj
[8.G	-day	.	.	.	D	.	.
8G]	_	.	.	.	.	.	.
8r	.	.	.	.	.	.	.
2r	.	.	.	.	.	.	.
=84	=84	=84	=84	=84	=84	=84	=84
*>Letter>B2	*>Letter>B2	*>Letter>B2	*>Letter>B2	*>Letter>B2	*>Letter>B2	*>Letter>B2	*>Letter>B2
*>Label>Solo	*>Label>Solo	*>Label>Solo	*>Label>Solo	*>Label>Solo	*>Label>Solo	*>Label>Solo	*>Label>Solo
1r	.	1Bm	newline	guitar	.	282.911	B:min
=85	=85	=85	=85	=85	=85	=85	=85
1r	.	1GM	.	guitar	.	286.157	G:maj
=86	=86	=86	=86	=86	=86	=86	=86
1r	.	1Bm	.	guitar	.	289.404	B:min
=87	=87	=87	=87	=87	=87	=87	=87
1r	.	1GM	.	guitar	.	292.65	G:maj
=88	=88	=88	=88	=88	=88	=88	=88
1r	.	1Am	newline	guitar	.	295.896	A:min
=89	=89	=89	=89	=89	=89	=89	=89
1r	.	2.CM	.	guitar	.	299.095	C:maj
.	.	4DM	.	guitar	.	301.494	D:maj
=90	=90	=90	=90	=90	=90	=90	=90
1r	.	1GM	.	guitar	.	302.294	G:maj
=91	=91	=91	=91	=91	=91	=91	=91
1r	.	1DM	.	guitar	.	305.493	D:maj
=92	=92	=92	=92	=92	=92	=92	=92
*>Letter>C	*>Letter>C	*>Letter>C	*>Letter>C	*>Letter>C	*>Letter>C	*>Letter>C	*>Letter>C
*>Label>Chorus	*>Label>Chorus	*>Label>Chorus	*>Label>Chorus	*>Label>Chorus	*>Label>Chorus	*>Label>Chorus	*>Label>Chorus
2r	.	1Am	newline	guitar	.	308.692	A:min
[2B	Wild	.	.	.	A	.	.
=93	=93	=93	=93	=93	=93	=93	=93
8B]	_	2.CM	.	guitar	.	311.865	C:maj
16A	hors-	.	.	.	.	.	.
16E	_	.	.	.	.	.	.
4.G	-es	.	.	.	.	.	.
8r	.	.	.	.	.	.	.
4r	.	4DM	.	guitar	.	314.245	D:maj
=94	=94	=94	=94	=94	=94	=94	=94
4r	.	2GM	.	guitar	.	315.038	G:maj
8B	coul-	.	.	.	.	.	.
8B	-d'nt	.	.	.	.	.	.
8A	drag	2FM	.	guitar	.	316.624	F:maj
8.B	me	.	.	.	.	.	.
8.A	a-	.	.	.	.	.	.
=95	=95	=95	=95	=95	=95	=95	=95
8E	-way	2.CM	.	guitar	D	318.211	C:maj
4.G	_	.	.	.	.	.	.
2r	.	.	.	.	.	.	.
.	.	4Bm	.	guitar	.	320.591	B:min
=96	=96	=96	=96	=96	=96	=96	=96
2r	.	1Am	newline	voice	.	321.384	A:min
[4B	Wild	.	.	.	A	.	.
16B]	_	.	.	.	.	.	.
[8.B	wild	.	.	.	A	.	.
=97	=97	=97	=97	=97	=97	=97	=97
8B]	_	2.CM	.	voice	.	324.6	C:maj
16A	hors-	.	.	.	.	.	.
8E	_	.	.	.	.	.	.
[8.G	-es	.	.	.	.	.	.
8G]	_	.	.	.	.	.	.
8r	.	.	.	.	.	.	.
4r	.	4DM	.	voice	.	327.012	D:maj
=98	=98	=98	=98	=98	=98	=98	=98
4r	.	2GM	.	voice	.	327.816	G:maj
8r	.	.	.	.	.	.	.
8G	We'll	.	.	.	.	.	.
8B	ride	2FM	.	voice	A	329.424	F:maj
8.G	them	.	.	.	.	.	.
16A	some-	.	.	.	.	.	.
8G	_	.	.	.	.	.	.
=99	=99	=99	=99	=99	=99	=99	=99
4.G	-day	1CM	.	voice	D	331.032	C:maj
8r	.	.	.	.	.	.	.
2r	.	.	.	.	.	.	.
=100	=100	=100	=100	=100	=100	=100	=100
1r	.	1GM	newline	guitar	.	334.247	G:maj
r;	.	1r;	.	r	.	340.939	N.C.
r;	.	1r;	.	r	.	344.137	N.C.
*-	*-	*-	*-	*-	*-	*-	*-
!!!BillboardChartDate: 1971/06/19
!!!BillboardPeak: 28
!!!BillboardWeeksOnChart: 8
!!!COC: The Rolling Stones
!!!ENC: Nathaniel Condit-Schultz
!!!EST: Awating manual error checking and editing.
!!!OTL: Wild Horses
!!!RDF**chordsym: original McGill chord annotation + (implied pitch class set, with bass pitch in first position)
!!!RDF**harmony: **recip + pitch class of root + harmonic quality
!!!RDF**leadinstrument: original McGill primary instrumentation annotation
!!!RDF**phrase: newline = linebreak in original McGill transcription
!!!RDF**timestamp: McGill audio timestamp in seconds
!!!RDT: 2017/01/12/
!!!SampleActualRank: 85
!!!SampleID#: 0094
!!!SampleTargetRank: 83
